src/assets/img/icons/duotone-icons/Weather/Thunder-night.svg

<?xml version="1.0" encoding="UTF-8"?>
<svg width="24px" height="24px" viewBox="0 0 24 24" version="1.1" xmlns="http://www.w3.org/2000/svg" xmlns:xlink="http://www.w3.org/1999/xlink">
    <!-- Generator: Sketch 52.2 (67145) - http://www.bohemiancoding.com/sketch -->
    <title>Stockholm-icons / Weather / Thunder-night</title>
    <desc>Created with Sketch.</desc>
    <g id="Stockholm-icons-/-Weather-/-Thunder-night" stroke="none" stroke-width="1" fill="none" fill-rule="evenodd">
        <polygon id="Shape" points="0 0 24 0 24 24 0 24"></polygon>
        <path d="M17.2283644,0.204585937 C17.094799,1.04356724 17.1734919,1.92788295 17.4998362,2.77803892 C18.4842043,5.34240534 21.3510057,6.63004045 23.9186178,5.66962325 C23.6471598,7.37476707 22.4989388,8.89265068 20.7710836,9.55591215 C18.1930725,10.5455179 15.3009475,9.25786092 14.3113418,6.67984976 C13.321736,4.1018386 14.609393,1.20971365 17.1874041,0.220107883 C17.2010489,0.214870157 17.2147024,0.209696224 17.2283644,0.204585937 Z M10.0888887,24 L10.0888887,20 L7.86666648,20 L12.3111109,14 L12.3111109,18 L14.5333331,18 L10.0888887,24 Z" id="Combined-Shape" fill="#335EEA" opacity="0.3"></path>
        <path d="M5.74714567,14.0425758 C4.09410362,12.9740356 3,11.1147886 3,9 C3,5.6862915 5.6862915,3 9,3 C11.7957591,3 14.1449096,4.91215918 14.8109738,7.5 L17.25,7.5 C19.3210678,7.5 21,9.17893219 21,11.25 C21,13.3210678 19.3210678,15 17.25,15 L8.25,15 C7.28817895,15 6.41093178,14.6378962 5.74714567,14.0425758 Z" id="Combined-Shape" fill="#335EEA"></path>
    </g>
</svg>

<svg width="24" height="24" viewBox="0 0 24 24" xmlns="http://www.w3.org/2000/svg"><g fill="none" fill-rule="evenodd"><path d="M0 0h24v24H0z"/><path d="M17.228.205a5 5 0 006.69 5.465 5 5 0 11-6.69-5.465zM10.088 24v-4H7.868l4.444-6v4h2.222l-4.444 6z" fill="#335EEA" opacity=".3"/><path d="M5.747 14.043A6 6 0 1114.811 7.5h2.439a3.75 3.75 0 010 7.5h-9c-.962 0-1.84-.362-2.503-.957z" fill="#335EEA"/></g></svg>
